website/public/svg/book.svg

<svg width="40" height="40" viewBox="0 0 40 40" fill="none" xmlns="http://www.w3.org/2000/svg">
<g clip-path="url(#clip0_647_582)">
<path fill-rule="evenodd" clip-rule="evenodd" d="M37.5 31.25C37.5 32.63 36.3413 33.32 35 33.75C35 33.75 28.1963 35.6438 21.25 37.4713V6.25L35 2.5C36.38 2.5 37.5 3.62 37.5 5V31.25ZM18.75 37.4975C11.9225 35.6625 5 33.75 5 33.75C3.58 33.36 2.5 32.63 2.5 31.25V5C2.5 3.62 3.62 2.5 5 2.5L18.75 6.25V37.4975ZM35 0C35 0 27.7638 1.9925 21.1875 3.75C20.3638 3.78125 19.5338 3.75 18.7088 3.75C12.4438 2.07 5 0 5 0C2.23875 0 0 2.23875 0 5V31.25C0 34.0112 2.35625 35.3913 5 36.25C5 36.25 11.7413 38.125 18.7088 40H21.24C28.265 38.125 35 36.25 35 36.25C37.5662 35.5863 40 34.0112 40 31.25V5C40 2.23875 37.7612 0 35 0Z" fill="white"/>
</g>
<defs>
<clipPath id="clip0_647_582">
<rect width="40" height="40" fill="white"/>
</clipPath>
</defs>
</svg>

<svg xmlns="http://www.w3.org/2000/svg" width="40" height="40" fill="none"><g clip-path="url(#a)"><path fill="#fff" fill-rule="evenodd" d="M37.5 31.25c0 1.38-1.159 2.07-2.5 2.5 0 0-6.804 1.894-13.75 3.721V6.25L35 2.5A2.5 2.5 0 0 1 37.5 5zm-18.75 6.248C11.922 35.663 5 33.75 5 33.75c-1.42-.39-2.5-1.12-2.5-2.5V5A2.5 2.5 0 0 1 5 2.5l13.75 3.75zM35 0s-7.236 1.993-13.812 3.75c-.824.031-1.654 0-2.48 0C12.445 2.07 5 0 5 0a5 5 0 0 0-5 5v26.25c0 2.761 2.356 4.141 5 5 0 0 6.741 1.875 13.709 3.75h2.531C28.265 38.125 35 36.25 35 36.25c2.566-.664 5-2.239 5-5V5a5 5 0 0 0-5-5" clip-rule="evenodd"/></g><defs><clipPath id="a"><path fill="#fff" d="M0 0h40v40H0z"/></clipPath></defs></svg>
